image/Vector-3.svg

<svg width="50" height="50" viewBox="0 0 50 50" fill="none" xmlns="http://www.w3.org/2000/svg">
<path d="M40.8693 28.5607V21.4393L44.9551 17.4857C44.1625 15.5188 43.0635 13.6808 41.6961 12.0357L36.1229 13.4822L29.7488 9.92145L28.254 4.52145C26.0974 4.20365 23.9036 4.20365 21.747 4.52145L20.2522 9.92145L13.8781 13.4822L8.30491 12.0357C6.93929 13.6786 5.83573 15.5179 5.04219 17.4857L9.12797 21.4393V28.5607L5.04219 32.5143C5.83573 34.4822 6.9356 36.3179 8.30491 37.9643L13.8781 36.5179L20.2522 40.0786L21.747 45.4786C23.9036 45.7964 26.0974 45.7964 28.254 45.4786L29.7488 40.0786L36.1229 36.5179L41.6961 37.9643C43.0617 36.3214 44.1652 34.4822 44.9551 32.5143L40.8693 28.5607ZM43.1613 42.7821L36.7466 41.1179L33.5504 42.9036L31.8304 49.1179C29.6528 49.6893 27.3645 50 25.0023 50C22.6365 50 20.3445 49.6929 18.1706 49.1179L16.4469 42.9036L13.2507 41.1179L6.83964 42.7821C3.53806 39.6295 1.17551 35.6741 0.000488281 31.3321L4.69895 26.7857V23.2143L0.000488281 18.6679C1.1749 14.3246 3.53749 10.368 6.83964 7.2143L13.2507 8.87859L16.4469 7.09288L18.1706 0.878594C20.3959 0.29248 22.6923 -0.00299662 24.9986 2.29097e-05C27.3645 2.29097e-05 29.6565 0.307166 31.8304 0.882165L33.5504 7.09645L36.7466 8.88216L43.1613 7.21788C46.4093 10.325 48.8083 14.2572 50.0005 18.6679L45.2983 23.2143V26.7857L50.0005 31.3321C48.8255 35.6741 46.4629 39.6295 43.1613 42.7821ZM25.0023 31.4286C25.8748 31.4286 26.7387 31.2623 27.5447 30.9392C28.3507 30.6162 29.0831 30.1426 29.7 29.5457C30.3169 28.9487 30.8063 28.2401 31.1402 27.4601C31.474 26.6802 31.6459 25.8442 31.6459 25C31.6459 24.1558 31.474 23.3199 31.1402 22.5399C30.8063 21.76 30.3169 21.0513 29.7 20.4543C29.0831 19.8574 28.3507 19.3839 27.5447 19.0608C26.7387 18.7377 25.8748 18.5714 25.0023 18.5714C23.2404 18.5714 21.5505 19.2487 20.3046 20.4543C19.0587 21.6599 18.3588 23.295 18.3588 25C18.3588 26.705 19.0587 28.3401 20.3046 29.5457C21.5505 30.7513 23.2404 31.4286 25.0023 31.4286ZM25.0023 35.7143C22.0657 35.7143 19.2494 34.5855 17.1728 32.5762C15.0963 30.5668 13.9298 27.8416 13.9298 25C13.9298 22.1584 15.0963 19.4332 17.1728 17.4239C19.2494 15.4146 22.0657 14.2857 25.0023 14.2857C27.939 14.2857 30.7553 15.4146 32.8318 17.4239C34.9083 19.4332 36.0749 22.1584 36.0749 25C36.0749 27.8416 34.9083 30.5668 32.8318 32.5762C30.7553 34.5855 27.939 35.7143 25.0023 35.7143Z" fill="#BB2A2F"/>
</svg>

<svg xmlns="http://www.w3.org/2000/svg" width="50" height="50" fill="none"><path fill="#BB2A2F" d="M40.87 28.56v-7.12l4.085-3.954a20.536 20.536 0 0 0-3.259-5.45l-5.573 1.446-6.374-3.56-1.495-5.4a22.324 22.324 0 0 0-6.507 0l-1.495 5.4-6.374 3.56-5.573-1.446a20.571 20.571 0 0 0-3.263 5.45l4.086 3.953v7.122l-4.086 3.953a20.527 20.527 0 0 0 3.263 5.45l5.573-1.446 6.374 3.56 1.495 5.4c2.157.318 4.35.318 6.507 0l1.495-5.4 6.374-3.56 5.573 1.446a20.462 20.462 0 0 0 3.26-5.45l-4.087-3.953Zm2.291 14.222-6.414-1.664-3.197 1.786-1.72 6.214a26.872 26.872 0 0 1-13.66 0l-1.723-6.214-3.196-1.786-6.411 1.664C3.538 39.63 1.176 35.674 0 31.332L4.7 26.786v-3.572L0 18.668c1.175-4.343 3.537-8.3 6.84-11.454l6.41 1.665 3.197-1.786L18.17.879A26.678 26.678 0 0 1 24.999 0c2.366 0 4.658.307 6.831.882l1.72 6.214 3.197 1.786 6.414-1.664c3.248 3.107 5.647 7.04 6.84 11.45l-4.703 4.546v3.572l4.703 4.546c-1.175 4.342-3.538 8.297-6.84 11.45ZM25.002 31.43c.873 0 1.737-.167 2.543-.49a6.662 6.662 0 0 0 2.155-1.393 6.42 6.42 0 0 0 1.44-2.086 6.25 6.25 0 0 0 0-4.92 6.42 6.42 0 0 0-1.44-2.086 6.664 6.664 0 0 0-2.155-1.393 6.836 6.836 0 0 0-2.543-.49 6.758 6.758 0 0 0-4.697 1.883A6.325 6.325 0 0 0 18.359 25c0 1.705.7 3.34 1.946 4.546a6.758 6.758 0 0 0 4.697 1.883Zm0 4.285c-2.936 0-5.753-1.128-7.83-3.138-2.076-2.01-3.242-4.734-3.242-7.576 0-2.842 1.166-5.567 3.243-7.576 2.076-2.01 4.893-3.138 7.83-3.138 2.936 0 5.752 1.129 7.829 3.138 2.076 2.01 3.243 4.734 3.243 7.576 0 2.842-1.167 5.567-3.243 7.576-2.077 2.01-4.893 3.138-7.83 3.138Z"/></svg>
